packages/foundations/assets/icons/functional/images/environment/cloud_28.svg

<svg width="28" height="28" viewBox="0 0 28 28" fill="none" xmlns="http://www.w3.org/2000/svg">
<g clip-path="url(#clip0_185_787)">
<path fill-rule="evenodd" clip-rule="evenodd" d="M17.0625 5.25C15.0215 5.25 12.9283 6.34268 11.7586 7.94604L11.6394 8.09666C11.1317 7.95041 10.602 7.875 10.0625 7.875L9.8507 7.87889C7.3197 7.97202 5.18015 9.72732 4.55778 12.129L4.49777 12.3163C2.80807 13.3534 1.75 15.1172 1.75 17.0625C1.75 20.2214 4.50843 22.75 7.875 22.75L20.3415 22.7464C23.6258 22.633 26.25 20.1405 26.25 17.0625L26.2452 16.8368C26.1693 15.0386 25.1551 13.3837 23.6182 12.3786C23.6227 12.0683 23.625 11.8796 23.625 11.8125C23.625 8.18813 20.685 5.25 17.0625 5.25ZM17.0625 7C19.7204 7 21.875 9.15463 21.875 11.8125C21.875 12.1088 21.8483 12.4013 21.7958 12.6877C21.7257 13.0694 21.9155 13.4516 22.2618 13.6266C23.6393 14.3225 24.5 15.6302 24.5 17.0625C24.5 19.1627 22.6545 20.9155 20.2961 20.997L7.875 21.0001C5.44258 21.0001 3.5 19.2193 3.5 17.0625C3.5 15.6434 4.34473 14.3463 5.70216 13.6448C5.95312 13.5151 6.12603 13.2722 6.16644 12.9926C6.44432 11.0701 8.09988 9.625 10.0625 9.625C10.6243 9.625 11.168 9.7422 11.6684 9.96604C12.0896 10.1545 12.5848 9.98337 12.7999 9.57503C13.6272 8.004 15.2556 7 17.0625 7Z" fill="#1A1C1F"/>
</g>
<defs>
<clipPath id="clip0_185_787">
<rect width="28" height="28" fill="white"/>
</clipPath>
</defs>
</svg>

<svg xmlns="http://www.w3.org/2000/svg" width="28" height="28" fill="none"><g clip-path="url(#a)"><path fill="#1A1C1F" fill-rule="evenodd" d="M17.063 5.25c-2.041 0-4.135 1.093-5.304 2.696l-.12.15a5.7 5.7 0 0 0-1.576-.221l-.212.004a5.69 5.69 0 0 0-5.293 4.25l-.06.187c-1.69 1.037-2.748 2.801-2.748 4.746 0 3.16 2.758 5.688 6.125 5.688l12.467-.004c3.284-.113 5.908-2.605 5.908-5.683l-.005-.226c-.076-1.798-1.09-3.453-2.627-4.458q.007-.466.007-.566a6.564 6.564 0 0 0-6.562-6.563m0 1.75a4.812 4.812 0 0 1 4.733 5.688c-.07.381.12.764.466.939 1.377.695 2.238 2.003 2.238 3.435 0 2.1-1.846 3.854-4.204 3.935L7.875 21C5.443 21 3.5 19.22 3.5 17.063c0-1.42.845-2.717 2.202-3.418a.88.88 0 0 0 .464-.652 3.938 3.938 0 0 1 5.502-3.027.875.875 0 0 0 1.132-.391A4.81 4.81 0 0 1 17.062 7" clip-rule="evenodd"/></g><defs><clipPath id="a"><path fill="#fff" d="M0 0h28v28H0z"/></clipPath></defs></svg>
